X: 31710
T: Pasucais De L.lamo
R: jig
M: 6/8
K: Dmajor
|:BAB def|aba ~f3|fef edB|BAB dBA|
dAB def|aba ~f3|fef edB|BAB d3:|
d2c|:~B3 BdB|~A3 dcd|~e3 efg|fed d2c|
~B3 BdB|~A3 dcd|~e3 efe|1 d3 d2c:|2 d3 ABd||
|:ABd ABd|e2e ecA|~e3 efg|fed ABd|
ABd ABd|e2e ecA|~e3 efe|1 d3 ABd:|2 d3 z3||

